X: 4
T: Sherlock's
M: 4/4
L: 1/8
R: hornpipe
K: G Majpr
|: DF |\
GAGE DGBD | GFGA Bdgf | edcB A2 GA | BAGF E2 DF |
GAGE DGBD | GFGA Bdgf | e2 dB AFGA | B2 G2 G2 :|
|: Bc |\ 
d^cde dBGF | GBd^c dgfg | efge dBGB | cABG AFDF |
G2 GE DGBD | GFGA Bdgf | edcB A2 GA | BGGF G2 :|
